data/icons/hicolor/symbolic/apps/org.gnome.World.Secrets-symbolic.svg

<?xml version="1.0" encoding="UTF-8"?>
<svg height="16px" viewBox="0 0 16 16" width="16px" xmlns="http://www.w3.org/2000/svg" xmlns:xlink="http://www.w3.org/1999/xlink">
    <filter id="a" height="100%" width="100%" x="0%" y="0%">
        <feColorMatrix in="SourceGraphic" type="matrix" values="0 0 0 0 1 0 0 0 0 1 0 0 0 0 1 0 0 0 1 0"/>
    </filter>
    <mask id="b">
        <g filter="url(#a)">
            <rect fill-opacity="0.2" height="16" width="16"/>
        </g>
    </mask>
    <clipPath id="c">
        <rect height="152" width="192"/>
    </clipPath>
    <g clip-path="url(#c)" mask="url(#b)" transform="matrix(1 0 0 1 -168 -16)">
        <path d="m 113 38 h -82 c -1.65625 0 -3 1.34375 -3 3 v 74 c 0 1.65625 1.34375 3 3 3 h 82 c 1.65625 0 3 -1.34375 3 -3 v -74 c 0 -1.65625 -1.34375 -3 -3 -3 z m 0 0"/>
    </g>
    <g fill="#241f31">
        <path d="m 10 4 h -4 v 2 h 2 v 1 l -2 1 v 4 h 4 v -2 l -2 -1 l 2 -1 z m 0 0"/>
        <path d="m 8 0 c -4.40625 0 -8 3.59375 -8 8 s 3.59375 8 8 8 s 8 -3.59375 8 -8 s -3.59375 -8 -8 -8 z m 0 2.132812 c 3.253906 0 5.867188 2.613282 5.867188 5.867188 s -2.613282 5.867188 -5.867188 5.867188 s -5.867188 -2.613282 -5.867188 -5.867188 s 2.613282 -5.867188 5.867188 -5.867188 z m 0 0"/>
    </g>
</svg>

<svg height="16" width="16" xmlns="http://www.w3.org/2000/svg"><filter id="a" height="100%" width="100%" x="0%" y="0%"><feColorMatrix in="SourceGraphic" values="0 0 0 0 1 0 0 0 0 1 0 0 0 0 1 0 0 0 1 0"/></filter><mask id="c"><g filter="url(#a)"><path fill-opacity=".2" d="M0 0h16v16H0z"/></g></mask><clipPath id="b"><path d="M0 0h192v152H0z"/></clipPath><g clip-path="url(#b)" mask="url(#c)" transform="translate(-168 -16)"><path d="M113 38H31a3 3 0 0 0-3 3v74a3 3 0 0 0 3 3h82a3 3 0 0 0 3-3V41a3 3 0 0 0-3-3zm0 0"/></g><g fill="#241f31"><path d="M10 4H6v2h2v1L6 8v4h4v-2L8 9l2-1zm0 0"/><path d="M8 0C3.594 0 0 3.594 0 8s3.594 8 8 8 8-3.594 8-8-3.594-8-8-8zm0 2.133c3.254 0 5.867 2.613 5.867 5.867S11.254 13.867 8 13.867 2.133 11.254 2.133 8 4.746 2.133 8 2.133zm0 0"/></g></svg>
